packages/web-icons/svgs/bookshelf.svg

<svg viewBox="0 0 56 48" xmlns="http://www.w3.org/2000/svg" class="ridi_icon"><path d="M.8 43.2h54.3V48H.8v-4.8zM5.6 7.4H11v33.7H5.6V7.4zm20.6 0h6.6v33.7h-6.6V7.4zm25.9 32.1l-6.3 1.8L34.3 1.8 40.7 0l11.4 39.5zM14.2 2.3h8.7V41h-8.7V2.3z"/></svg>

<?xml version="1.0" encoding="UTF-8"?>
<svg width="56px" height="48px" viewBox="0 0 56 48" version="1.1" xmlns="http://www.w3.org/2000/svg">
  <!-- Generator: Sketch 41.2 (35397) - http://www.bohemiancoding.com/sketch -->
  <title>bookshelf</title>
  <desc>Created with Sketch.</desc>
  <defs></defs>
  <g id="Page-1" stroke="none" stroke-width="1" fill="none" fill-rule="evenodd">
    <g id="bookshelf" fill="#000000">
      <g id="레이어_1">
        <path d="M0.8,43.2 L55.1,43.2 L55.1,48 L0.8,48 L0.8,43.2 L0.8,43.2 Z M5.6,7.4 L11,7.4 L11,41.1 L5.6,41.1 L5.6,7.4 Z M26.2,7.4 L32.8,7.4 L32.8,41.1 L26.2,41.1 C26.2,41.1 26.2,7.4 26.2,7.4 Z M52.1,39.5 L45.8,41.3 L34.3,1.8 L40.7,0 L52.1,39.5 Z M14.2,2.3 L22.9,2.3 L22.9,41 L14.2,41 L14.2,2.3 Z" id="Shape"></path>
      </g>
    </g>
  </g>
</svg>
